X: 180
M: 3/4
L: 1/8
K: D
(DE) | F2 A2 (Bc) | d2 e2 {de}f2 | A2 (BA) (GF) |
{F}E4 (DE) | F2 A2 (Bc) | (dc) (de) {de}f2 |
c2 (ec) (BA) | (Bc) (dB) (AG) | {F}E4 (DE) | F2 A2 (Bc) |
(dc) (de) f2 | (AB) (AF) (ED) | D4 |]
K:

